X:65
T:Tom Sullivan's
S:as recorded by Jackie Daly
N:Transcribed by Alan Ng without variations
D:Music from Sliabh Luachra, Topic 1977, reissued as Green Linnet GLCD 3065, 1992
Z:id:ng-other-13 Transcribed by Alan Ng agng@facstaff.wisc.edu July 7, 2000
L:1/16
R:polka
M:2/4
K:D
E|F2G2 A2B2|=cBA2 A2G2|A2d2 d2c2|d3c d2e2|edc2 e3d|c2A2 A3B|cBA2 G2E2|D4 D3:|*
|:e|f2d2 e2d2|c2A2 A3e|f2d2 e2c2|d4 d3e|f2d2 e2d2|c2A2 A3B|cBA2 G2E2|D4 D3:|*
"variation for last time through"e|f2d2 e2d2|c2A2 A2de|\
f2d2 e2f2|g2fg a2g2|f2d2 e3d|c2A2 A3B|cBA2 G2E2|D4 D3||**
